svg/airplane_marker.svg

<svg xmlns="http://www.w3.org/2000/svg" viewBox="0 0 24 24"><path d="M15.33 11.05a5.53 5.53 0 0 0-2.24 3.53l-1.54-2.95-3.89 3.87L8 18l-1.05 1.06-1.77-3.19L2 14.11l1.06-1.06 2.48.35 3.89-3.9L2 5.62l1.41-1.41 9.2 2.12 3.89-3.89a1.49 1.49 0 0 1 2.12 0c.58.59.58 1.56 0 2.12l-3.89 3.89zM22 15.5c0 2.6-3.5 6.5-3.5 6.5S15 18.1 15 15.5c0-1.9 1.6-3.5 3.5-3.5s3.5 1.6 3.5 3.5m-2.3.1c0-.6-.6-1.2-1.2-1.2s-1.2.5-1.2 1.2c0 .6.5 1.2 1.2 1.2s1.3-.6 1.2-1.2"/></svg>

<svg xmlns="http://www.w3.org/2000/svg" id="mdi-airplane-marker" viewBox="0 0 24 24"><path d="M15.33 11.05C14.17 11.88 13.34 13.14 13.09 14.58L11.55 11.63L7.66 15.5L8 18L6.95 19.06L5.18 15.87L2 14.11L3.06 13.05L5.54 13.4L9.43 9.5L2 5.62L3.41 4.21L12.61 6.33L16.5 2.44C17.08 1.85 18.03 1.85 18.62 2.44C19.2 3.03 19.2 4 18.62 4.56L14.73 8.45L15.33 11.05M22 15.5C22 18.1 18.5 22 18.5 22S15 18.1 15 15.5C15 13.6 16.6 12 18.5 12S22 13.6 22 15.5M19.7 15.6C19.7 15 19.1 14.4 18.5 14.4S17.3 14.9 17.3 15.6C17.3 16.2 17.8 16.8 18.5 16.8S19.8 16.2 19.7 15.6" /></svg>
